justvector/bebo.svg

<?xml version="1.0" encoding="iso-8859-1"?>
<!-- Generator: Adobe Illustrator 15.0.0, SVG Export Plug-In . SVG Version: 6.00 Build 0)  -->
<!DOCTYPE svg PUBLIC "-//W3C//DTD SVG 1.1//EN" "http://www.w3.org/Graphics/SVG/1.1/DTD/svg11.dtd">
<svg version="1.1" id="Icons" xmlns="http://www.w3.org/2000/svg" xmlns:xlink="http://www.w3.org/1999/xlink" x="0px" y="0px"
	 width="100px" height="100px" viewBox="0 0 100 100" style="enable-background:new 0 0 100 100;" xml:space="preserve">
<path id="Bebo" d="M54.5,95h-9c-19.854,0-36-16.154-36-36V14c0-4.975,4.025-9,9-9c4.966,0,9,4.025,9,9v45c0,9.923,8.077,18,18,18h9
	c9.923,0,18-7.066,18-15.75c0-8.877-4.843-15.75-9-15.75h-18c-4.975,0-9-4.034-9-9c0-4.975,4.025-9,9-9h18
	c14.889,0,27,15.135,27,33.75C90.5,79.856,74.346,95,54.5,95z"/>
</svg>

<?xml version="1.0" encoding="UTF-8" standalone="no"?>
<!DOCTYPE svg PUBLIC "-//W3C//DTD SVG 1.1//EN" "http://www.w3.org/Graphics/SVG/1.1/DTD/svg11.dtd">
<svg width="100%" height="100%" viewBox="0 0 100 100" version="1.1" xmlns="http://www.w3.org/2000/svg" xmlns:xlink="http://www.w3.org/1999/xlink" xml:space="preserve" xmlns:serif="http://www.serif.com/" style="fill-rule:evenodd;clip-rule:evenodd;stroke-linejoin:round;stroke-miterlimit:2;">
    <path id="Bebo" d="M54.5,95L45.5,95C25.646,95 9.5,78.846 9.5,59L9.5,14C9.5,9.025 13.525,5 18.5,5C23.466,5 27.5,9.025 27.5,14L27.5,59C27.5,68.923 35.577,77 45.5,77L54.5,77C64.423,77 72.5,69.934 72.5,61.25C72.5,52.373 67.657,45.5 63.5,45.5L45.5,45.5C40.525,45.5 36.5,41.466 36.5,36.5C36.5,31.525 40.525,27.5 45.5,27.5L63.5,27.5C78.389,27.5 90.5,42.635 90.5,61.25C90.5,79.856 74.346,95 54.5,95Z" style="fill:rgb(255,0,0);fill-rule:nonzero;"/>
</svg>
